icons/share-o.svg

<?xml version="1.0" encoding="UTF-8"?>
<svg width="24px" height="24px" viewBox="0 0 24 24" version="1.1" xmlns="http://www.w3.org/2000/svg" xmlns:xlink="http://www.w3.org/1999/xlink">
    <!-- Generator: Sketch 43.2 (39069) - http://www.bohemiancoding.com/sketch -->
    <title>share-o</title>
    <desc>Created with Sketch.</desc>
    <defs></defs>
    <g id="Page-1" stroke="none" stroke-width="1" fill="none" fill-rule="evenodd">
        <g id="share-o" fill-rule="nonzero" fill="#000000">
            <path d="M18,16.08 C19.61,16.08 20.92,17.39 20.92,19 C20.92,20.61 19.61,21.92 18,21.92 C16.39,21.92 15.08,20.61 15.08,19 C15.08,18.78 15.11,18.56 15.16,18.35 L8.04,14.19 C7.5,14.69 6.79,15 6,15 C4.34,15 3,13.66 3,12 C3,10.34 4.34,9 6,9 C6.79,9 7.5,9.31 8.04,9.81 L15.09,5.7 C15.04,5.47 15,5.24 15,5 C15,3.34 16.34,2 18,2 C19.66,2 21,3.34 21,5 C21,6.66 19.66,8 18,8 C17.21,8 16.5,7.69 15.96,7.19 L8.91,11.3 C8.96,11.53 9,11.76 9,12 C9,12.24 8.96,12.47 8.91,12.7 L16.04,16.85 C16.56,16.38 17.24,16.08 18,16.08 Z M18,7 C19.1045695,7 20,6.1045695 20,5 C20,3.8954305 19.1045695,3 18,3 C16.8954305,3 16,3.8954305 16,5 C16,6.1045695 16.8954305,7 18,7 Z M6,14 C7.1045695,14 8,13.1045695 8,12 C8,10.8954305 7.1045695,10 6,10 C4.8954305,10 4,10.8954305 4,12 C4,13.1045695 4.8954305,14 6,14 Z M18,21 C19.1045695,21 20,20.1045695 20,19 C20,17.8954305 19.1045695,17 18,17 C16.8954305,17 16,17.8954305 16,19 C16,20.1045695 16.8954305,21 18,21 Z" id="Shape"></path>
        </g>
    </g>
</svg>

<svg width="24" height="24" viewBox="0 0 24 24" xmlns="http://www.w3.org/2000/svg"><title>share-o</title><desc>Created with Sketch.</desc><path d="M18 16.08c1.61 0 2.92 1.31 2.92 2.92 0 1.61-1.31 2.92-2.92 2.92-1.61 0-2.92-1.31-2.92-2.92 0-.22.03-.44.08-.65l-7.12-4.16c-.54.5-1.25.81-2.04.81-1.66 0-3-1.34-3-3s1.34-3 3-3c.79 0 1.5.31 2.04.81l7.05-4.11c-.05-.23-.09-.46-.09-.7 0-1.66 1.34-3 3-3s3 1.34 3 3-1.34 3-3 3c-.79 0-1.5-.31-2.04-.81l-7.05 4.11c.05.23.09.46.09.7 0 .24-.04.47-.09.7l7.13 4.15c.52-.47 1.2-.77 1.96-.77zm0-9.08c1.105 0 2-.895 2-2s-.895-2-2-2-2 .895-2 2 .895 2 2 2zm-12 7c1.105 0 2-.895 2-2s-.895-2-2-2-2 .895-2 2 .895 2 2 2zm12 7c1.105 0 2-.895 2-2s-.895-2-2-2-2 .895-2 2 .895 2 2 2z" fill-rule="nonzero" fill="#000"/></svg>
